svg/part/mouth_line.svg

<?xml version="1.0" encoding="UTF-8"?>
<svg width="24px" height="24px" viewBox="0 0 24 24" version="1.1" xmlns="http://www.w3.org/2000/svg" xmlns:xlink="http://www.w3.org/1999/xlink">
    <title>mouth_line</title>
    <g id="Icon" stroke="none" stroke-width="1" fill="none" fill-rule="evenodd">
        <g id="Part" transform="translate(-384.000000, 0.000000)">
            <g id="mouth_line" transform="translate(384.000000, 0.000000)">
                <path d="M24,0 L24,24 L0,24 L0,0 L24,0 Z M12.5935,23.2578 L12.5819,23.2595 L12.5109,23.295 L12.4919,23.2987 L12.4767,23.295 L12.4057,23.2595 C12.3958,23.2564 12.387,23.259 12.3821,23.2649 L12.378,23.2758 L12.3609,23.7031 L12.3659,23.7235 L12.3769,23.7357 L12.4805,23.8097 L12.4953,23.8136 L12.5071,23.8097 L12.6107,23.7357 L12.6233,23.7197 L12.6267,23.7031 L12.6096,23.2758 C12.6076,23.2657 12.601,23.2593 12.5935,23.2578 Z M12.8584,23.1453 L12.8445,23.1473 L12.6598,23.2397 L12.6499,23.2499 L12.6472,23.2611 L12.6651,23.6906 L12.6699,23.7034 L12.6784,23.7105 L12.8793,23.8032 C12.8914,23.8069 12.9022,23.803 12.9078,23.7952 L12.9118,23.7812 L12.8777,23.1665 C12.8753,23.1546 12.8674,23.147 12.8584,23.1453 Z M12.143,23.1473 C12.1332,23.1424 12.1222,23.1453 12.1156,23.1526 L12.1099,23.1665 L12.0758,23.7812 C12.0751,23.7927 12.0828,23.8019 12.0926,23.8046 L12.1083,23.8032 L12.3092,23.7105 L12.3186,23.7024 L12.3225,23.6906 L12.3404,23.2611 L12.3372,23.2485 L12.3278,23.2397 L12.143,23.1473 Z" id="MingCute" fill-rule="nonzero"></path>
                <path d="M14.9267,6.00193 C16.8296611,6.07386833 18.6888262,6.9653625 20.0747291,7.87685376 L20.87396,8.4155567 L20.87396,8.4155567 L21.1905166,8.63594646 L21.1905166,8.63594646 L21.5153515,8.87577122 C22.2735041,9.45712884 23,10.1876755 23,11.0007 C23,12.0719125 22.0476547,13.1726271 21.1310372,14.0311077 L20.8106175,14.3236002 L20.8106175,14.3236002 L20.5028184,14.5933215 L20.5028184,14.5933215 L20.0859,14.9494 L20.0859,14.9494 C18.2703,16.4957 15.5489,18.000002 12,18.000002 C8.57789464,18.000002 5.92513534,16.6012314 4.11209923,15.1148477 L3.78715842,14.8411017 L3.78715842,14.8411017 L3.35890625,14.4687093 L3.35890625,14.4687093 L3.04647766,14.1854062 C2.08945,13.2979875 1,12.089325 1,11.0007 C1,10.2224727 1.61568725,9.55023709 2.30975825,8.99996713 L2.63370793,8.75471484 C2.68797499,8.71530223 2.74221674,8.67662585 2.79618861,8.63869297 L3.1148248,8.42007591 L3.1148248,8.42007591 L3.68571,8.03777 C5.09261,7.07311 7.05843,6.07815 9.07333,6.00196 C9.718138,5.977576 10.279842,6.1876112 10.8292977,6.44671648 L11.2402,6.64735 C11.4322,6.7427 11.6248,6.83839 11.8212,6.92644 C11.9764,6.99598 12.0236,6.99598 12.1788,6.92644 L12.47095,6.7896225 L12.47095,6.7896225 L13.1707064,6.4466964 C13.720172,6.1875908 14.2819,5.977554 14.9267,6.00193 Z M19.6991,12.5648 C17.5374,13.2051 14.7233,13.5 12,13.5 C9.27679,13.5 6.46268,13.2051 4.30096,12.5648 C6.30142,14.6733 9.06722,16 12,16 C14.9328,16 17.6986,14.6733 19.6991,12.5648 Z M14.8511,8.00057 C14.4617,7.985852 14.07806,8.166794 13.7098568,8.36930648 L13.3471576,8.57256136 C13.228212,8.6384112 13.11134,8.70021 12.9969,8.75151 C12.7546,8.86017 12.3952,9.00115 12,9.00115 C11.6049,9.00115 11.2455,8.86017 11.0031,8.75151 C10.88624,8.699124 10.768442,8.6366548 10.6494586,8.57043136 L10.2887045,8.36682728 C9.9238992,8.1646184 9.546198,7.985582 9.14892,8.0006 C7.23673,8.07291 5.40709,9.14268 3.95508,10.333 C5.81813,11.0831 8.84528,11.5 12,11.5 C15.1548,11.5 18.1819,11.0831 20.045,10.333 C18.593,9.14266 16.7633,8.07286 14.8511,8.00057 Z" id="形状" fill="#09244B"></path>
            </g>
        </g>
    </g>
</svg>

<svg xmlns="http://www.w3.org/2000/svg" width="24" height="24"><g fill="none" fill-rule="evenodd"><path d="M24 0v24H0V0h24ZM12.594 23.258l-.012.002-.071.035-.02.004-.014-.004-.071-.036c-.01-.003-.019 0-.024.006l-.004.01-.017.428.005.02.01.013.104.074.015.004.012-.004.104-.074.012-.016.004-.017-.017-.427c-.002-.01-.009-.017-.016-.018Zm.264-.113-.014.002-.184.093-.01.01-.003.011.018.43.005.012.008.008.201.092c.012.004.023 0 .029-.008l.004-.014-.034-.614c-.003-.012-.01-.02-.02-.022Zm-.715.002a.023.023 0 0 0-.027.006l-.006.014-.034.614c0 .012.007.02.017.024l.015-.002.201-.093.01-.008.003-.011.018-.43-.003-.012-.01-.01-.184-.092Z"/><path fill="#09244B" d="M14.927 6.002c1.903.072 3.762.963 5.148 1.875l.799.539.317.22.324.24C22.274 9.457 23 10.188 23 11c0 1.07-.952 2.172-1.869 3.03l-.32.293-.308.27-.417.355C18.27 16.496 15.549 18 12 18c-3.422 0-6.075-1.399-7.888-2.885l-.325-.274-.428-.372-.313-.284C2.09 13.298 1 12.09 1 11.001c0-.779.616-1.45 1.31-2.001l.324-.245c.054-.04.108-.078.162-.116l.319-.219.57-.382c1.408-.965 3.373-1.96 5.388-2.036.645-.024 1.207.186 1.756.445l.411.2c.192.096.385.191.581.28.155.069.203.069.358 0l.292-.137.7-.343c.55-.26 1.11-.47 1.756-.445Zm4.772 6.563c-2.162.64-4.976.935-7.699.935s-5.537-.295-7.699-.935C6.301 14.673 9.067 16 12 16s5.699-1.327 7.7-3.435ZM14.851 8c-.39-.015-.773.166-1.141.368l-.363.204a4.728 4.728 0 0 1-.35.179c-.242.108-.602.25-.997.25s-.755-.142-.997-.25a4.637 4.637 0 0 1-.354-.182l-.36-.203c-.365-.202-.743-.381-1.14-.366-1.912.072-3.742 1.142-5.194 2.332 1.863.75 4.89 1.167 8.045 1.167 3.155 0 6.182-.417 8.045-1.167-1.452-1.19-3.282-2.26-5.194-2.332Z"/></g></svg>
